X: 073
T: Mr E Marjoribanks's Hornpipe
C: by Mr Bird
B: John Pringle "Collection of Reels Strathspeys & Jigs", 1801 p.7#3
Z: 2011 John Chambers <jc:trillian.mit.edu>
R: reel
M: C|
L: 1/8
K: Bb
V: 1
|: B2df edcB | ceGc (BA)GF | DFBd EGcd | (ed)cB ([B2F2][A2F2]) | B2df (ed)cB |
ceGc BAGF | DFBd EGce | dBFA B2B,2 :: geBG Egbg | fdBF Dfbf | ecGE Ccec |
dBFD B,2(FE) | DFBd EGce | Acfa | Bdfb | (gf)gd (ed)cB | FBAc B2B,2 :|
V: 2 clef=bass middle=d
|: B2b2 B2d2 | e2=e2 f2_e2 | [d2B2]d2 e2E2 | e2=e2 fedc | B2b2 B2d2 |
e2=e2 f2_e2 | B2d2 e2E2 | f2F2 B2B,2 :: z2e2 g2e2 | z2B2 d2B2 | z2c2 e2A2 |
B2b2 B2z2 | B2b2 g2e2 | f2F2 B2d2 | E2e2 F2f2 | b2f2 B2B2 :|

%%sep 2 1 500

